Origami/22x22/apps/electrum-ltc.svg

<svg width="22" height="22" version="1.1" viewBox="0 0 22 22" xmlns="http://www.w3.org/2000/svg">
 <circle cx="11" cy="11" r="10" style="fill:#3399cc"/>
 <path d="m11 1a10 10 0 0 0 -10 10 10 10 0 0 0 0.01075 0.291 10 10 0 0 1 9.989 -9.791 10 10 0 0 1 9.9895 9.709 10 10 0 0 0 0.01074 -0.20895 10 10 0 0 0 -10 -10z" style="fill:#ffffff;opacity:.2"/>
 <path d="M 20.9895,11.2 A 10,10 0 0 1 11,21 10,10 0 0 1 1.011,11.25 10,10 0 0 0 1,11.5 a 10,10 0 0 0 10,10 10,10 0 0 0 10,-10 10,10 0 0 0 -0.01075,-0.29105 z" style="opacity:.2"/>
 <path d="m8.9570312 3.1386844c-0.8703698-0.0471078-1.711128 0.125691-2.4609374 0.5585937-1.3294744 0.7675724-2.0913014 2.194328-2.3164063 3.8652344-1.3347662 1.030092-2.1894531 2.4021745-2.1894531 3.9375005s0.8546869 2.907408 2.1894531 3.9375c0.2251052 1.670905 0.9869318 3.097662 2.3164063 3.865234 1.3294795 0.767576 2.9446032 0.712954 4.5039062 0.07227 1.559559 0.640455 3.176422 0.695285 4.505859-0.07227 1.329517-0.767596 2.087725-2.194435 2.3125-3.865234 1.335482-1.030199 2.191407-2.401696 2.191407-3.9375s-0.855925-2.9073015-2.191407-3.9375005c-0.224773-1.6708079-0.982979-3.097635-2.3125-3.8652344-1.329437-0.7675508-2.9463-0.712721-4.505859-0.0722656-0.679828-0.2793111-1.370144-0.4499122-2.0429688-0.4863281zm-0.037109 1.015625c0.2625638 0.0149592 0.5339648 0.0638268 0.8085938 0.1289062-0.683877 0.428811-1.3448453 0.9719066-1.9648441 1.6074219-0.8623372 0.2197553-1.6642258 0.5215071-2.3789063 0.9003906 0.2964649-0.9908316 0.8429975-1.7617034 1.6210938-2.2109375 0.5654952-0.3264888 1.2148642-0.4656171 1.9140628-0.4257812zm4.1601558 0c0.699198-0.039836 1.350521 0.099292 1.916016 0.4257812 0.778096 0.449234 1.322675 1.2201058 1.61914 2.2109375-0.71468-0.3788835-1.516569-0.6806353-2.378906-0.9003906-0.6206-0.6355913-1.280504-1.1786108-1.964844-1.6074219 0.274876-0.0651787 0.545803-0.1139341 0.808594-0.1289062zm-2.078125 0.5898437c0.043 0.020953 0.08581 0.036547 0.128906 0.058594 0.401814 0.2055717 0.803534 0.4608267 1.199219 0.7578125-0.435358-0.0424971-0.877029-0.0703127-1.330078-0.0703127-0.452377 0-0.893383 0.02794-1.328125 0.070312 0.39534-0.2966377 0.795816-0.5504736 1.197266-0.7558594 0.04436-0.022697 0.08855-0.039009 0.132812-0.060546zm-0.001953 1.765625c0.952441 0 1.861478 0.1117466 2.707031 0.3046875 0.589112 0.6353135 1.13955 1.3674968 1.615235 2.1914064 0.475935 0.824344 0.832429 1.666225 1.08789 2.494141-0.255662 0.828263-0.611955 1.67175-1.08789 2.496094-0.475781 0.824077-1.026187 1.554399-1.615235 2.189453-0.845553 0.192941-1.75459 0.304687-2.707031 0.304687s-1.861478-0.111746-2.7070312-0.304687c-0.5890476-0.635054-1.1394534-1.365376-1.6152344-2.189453-0.4759354-0.824345-0.8322285-1.667831-1.0878906-2.496094 0.2554613-0.827916 0.6119552-1.669796 1.0878906-2.494141 0.4757811-0.8240771 1.0259863-1.5560051 1.6152344-2.1914064 0.8455532-0.1929409 1.7545902-0.3046875 2.7070312-0.3046875zm-4.4785156 0.8710938c-0.2539981 0.3553955-0.5003528 0.723428-0.7265625 1.1152344-0.2262961 0.3919563-0.4207282 0.7877277-0.6015625 1.1855477-0.0592398-0.490745-0.0794985-0.967567-0.0566406-1.4179696 0.0024852-0.0489714 0.0102642-0.0942553 0.0136718-0.1425781 0.0396477-0.026762 0.0745898-0.0557319 0.1152344-0.0820313 0.3786961-0.2450387 0.8011528-0.4641104 1.2558594-0.6582031zm8.9570316 0c0.454706 0.1940927 0.877163 0.4131644 1.255859 0.6582031 0.04143 0.026806 0.0768 0.056698 0.117187 0.083984 0.0034 0.048323 0.01119 0.093607 0.01367 0.1425781 0.02286 0.4504114 6.49e-4 0.9252609-0.05859 1.4160159-0.180741-0.397874-0.375268-0.7935906-0.601564-1.1855467-0.226209-0.3918065-0.472469-0.7598937-0.726562-1.1152344zm-5.228516 0.1191406-0.970703 3.8828125-1.029297 0.267579-0.25 1 1.029297-0.267579-0.529297 2.117188h5.25l0.5-1h-3.5l0.417969-1.673828 1.632812-0.425781 0.25-1-1.632812 0.425781 0.832031-3.3261725zm-6.1367188 1.4941406c0.0295 0.8067919 0.1696513 1.6510449 0.4101563 2.5058599-0.2405841 0.854968-0.3806515 1.698926-0.4101563 2.505859-0.7089113-0.751789-1.1035156-1.608015-1.1035156-2.505859s0.3946043-1.754071 1.1035156-2.5058599zm13.773438 0c0.708911 0.7517889 1.103515 1.6080159 1.103515 2.5058599s-0.394604 1.75407-1.103515 2.505859c-0.02936-0.806994-0.169919-1.650729-0.410157-2.505859 0.240169-0.855012 0.380812-1.698976 0.410157-2.5058599zm-12.69336 4.3242189c0.1808343 0.39782 0.3752664 0.795544 0.6015625 1.1875 0.2262095 0.391807 0.4725645 0.757886 0.7265625 1.113282-0.4547066-0.194093-0.8771633-0.413165-1.2558594-0.658203-0.040645-0.0263-0.075587-0.05527-0.1152344-0.08203-0.00346-0.04897-0.011153-0.09489-0.013672-0.144531-0.022858-0.450403-0.0025-0.925444 0.056641-1.416016zm11.613282 0c0.05914 0.490572 0.0795 0.965613 0.05664 1.416016-0.0025 0.04964-0.01021 0.09556-0.01367 0.144531-0.03965 0.02676-0.07459 0.05573-0.115234 0.08203-0.378696 0.245038-0.801153 0.46411-1.255859 0.658203 0.254093-0.355341 0.500353-0.721475 0.726562-1.113282 0.226296-0.391956 0.420823-0.789625 0.601563-1.1875zm-11.419922 2.890625c0.7142911 0.378509 1.5152326 0.680793 2.3769531 0.900391 0.6195914 0.635098 1.2794901 1.178748 1.9628901 1.607422-1.0054615 0.238263-1.9433853 0.151909-2.7207026-0.296875-0.7780265-0.449194-1.3229452-1.219736-1.6191406-2.210938zm11.226562 0c-0.29626 0.990765-0.839396 1.761881-1.617187 2.210938-0.777261 0.448752-1.717277 0.535072-2.722656 0.296875 0.683862-0.428674 1.342699-0.972249 1.96289-1.607422 0.861721-0.219598 1.662662-0.521882 2.376953-0.900391zm-6.939453 1.230469c0.434126 0.04225 0.874467 0.07031 1.326172 0.07031 0.452377 0 0.893383-0.02794 1.328125-0.07031-0.394576 0.295797-0.796514 0.550831-1.197266 0.755859-0.04401 0.02252-0.08695 0.03917-0.130859 0.06055-0.04391-0.02138-0.08685-0.03803-0.130859-0.06055-0.40071-0.205007-0.800776-0.460101-1.195313-0.755859z" style="opacity:.2"/>
 <path d="m8.9570312 2.6386719c-0.8703698-0.0471078-1.711128 0.125691-2.4609374 0.5585937-1.3294744 0.7675724-2.0913014 2.194328-2.3164063 3.8652344-1.3347662 1.030092-2.1894531 2.402174-2.1894531 3.9375s0.8546869 2.907408 2.1894531 3.9375c0.2251052 1.670905 0.9869318 3.097662 2.3164063 3.865234 1.3294795 0.767576 2.9446032 0.712954 4.5039062 0.072266 1.559559 0.640455 3.176422 0.695285 4.505859-0.07227 1.329517-0.767596 2.087725-2.194435 2.3125-3.865234 1.335482-1.030199 2.191407-2.401696 2.191407-3.9375s-0.855925-2.907301-2.191407-3.9375c-0.224773-1.6708039-0.982979-3.097631-2.3125-3.8652304-1.329437-0.7675508-2.9463-0.712721-4.505859-0.0722656-0.679828-0.2793111-1.370144-0.4499122-2.0429688-0.4863281zm-0.037109 1.015625c0.2625638 0.0149592 0.5339648 0.0638268 0.8085938 0.1289062-0.683877 0.428811-1.3448453 0.9719066-1.9648441 1.6074219-0.8623372 0.2197553-1.6642258 0.5215071-2.3789063 0.9003906 0.2964649-0.9908316 0.8429975-1.7617034 1.6210938-2.2109375 0.5654952-0.3264888 1.2148642-0.4656171 1.9140628-0.4257812zm4.1601558 0c0.699198-0.039836 1.350521 0.099292 1.916016 0.4257812 0.778096 0.449234 1.322675 1.2201058 1.61914 2.2109375-0.71468-0.3788835-1.516569-0.6806353-2.378906-0.9003906-0.6206-0.6355913-1.280504-1.1786108-1.964844-1.6074219 0.274876-0.0651787 0.545803-0.1139341 0.808594-0.1289062zm-2.078125 0.5898437c0.043 0.020953 0.08581 0.036547 0.128906 0.058594 0.401814 0.2055717 0.803534 0.4608267 1.199219 0.7578125-0.435358-0.0424971-0.877029-0.0703127-1.330078-0.0703127-0.452377 0-0.893383 0.02794-1.328125 0.070312 0.39534-0.2966377 0.795816-0.5504736 1.197266-0.7558594 0.04436-0.022697 0.08855-0.039009 0.132812-0.060546zm-0.001953 1.765625c0.952441 0 1.861478 0.1117466 2.707031 0.3046875 0.589112 0.6353135 1.13955 1.3674968 1.615235 2.1914063 0.475935 0.8243436 0.832429 1.6662246 1.08789 2.4941406-0.255662 0.828263-0.611955 1.67175-1.08789 2.496094-0.475781 0.824077-1.026187 1.554399-1.615235 2.189453-0.845553 0.192941-1.75459 0.304687-2.707031 0.304687s-1.861478-0.111746-2.7070312-0.304687c-0.5890476-0.635054-1.1394534-1.365376-1.6152344-2.189453-0.4759354-0.824345-0.8322285-1.667831-1.0878906-2.496094 0.2554613-0.827916 0.6119552-1.669796 1.0878906-2.4941406 0.4757811-0.824077 1.0259863-1.556005 1.6152344-2.1914063 0.8455532-0.1929409 1.7545902-0.3046875 2.7070312-0.3046875zm-4.4785156 0.8710938c-0.2539981 0.3553955-0.5003528 0.723428-0.7265625 1.1152344-0.2262961 0.3919563-0.4207282 0.787727-0.6015625 1.1855472-0.0592398-0.4907447-0.0794985-0.9675665-0.0566406-1.4179691 0.0024852-0.0489714 0.0102642-0.0942553 0.0136718-0.1425781 0.0396477-0.026762 0.0745898-0.0557319 0.1152344-0.0820313 0.3786961-0.2450387 0.8011528-0.4641104 1.2558594-0.6582031zm8.9570316 0c0.454706 0.1940927 0.877163 0.4131644 1.255859 0.6582031 0.04143 0.026806 0.0768 0.056698 0.117187 0.083984 0.0034 0.048323 0.01119 0.093607 0.01367 0.1425781 0.02286 0.4504114 6.49e-4 0.9252612-0.05859 1.4160164-0.180741-0.397875-0.375268-0.7935911-0.601564-1.1855472-0.226209-0.3918065-0.472469-0.7598937-0.726562-1.1152344zm-5.228516 0.1191406-0.970703 3.882812-1.029297 0.267579-0.25 1 1.029297-0.267579-0.529297 2.117188h5.25l0.5-1h-3.5l0.417969-1.673828 1.632812-0.425781 0.25-1-1.632812 0.425781 0.832031-3.326172zm-6.1367188 1.4941406c0.0294997 0.8067914 0.1696513 1.6510444 0.4101563 2.5058594-0.2405841 0.854968-0.3806515 1.698926-0.4101563 2.505859-0.7089113-0.751789-1.1035156-1.608015-1.1035156-2.505859s0.3946043-1.754071 1.1035156-2.5058594zm13.773438 0c0.708911 0.7517884 1.103515 1.6080154 1.103515 2.5058594s-0.394604 1.75407-1.103515 2.505859c-0.029358-0.806994-0.169919-1.650729-0.410157-2.505859 0.240169-0.855012 0.380812-1.698976 0.410157-2.5058594zm-12.69336 4.3242184c0.1808343 0.39782 0.3752664 0.795544 0.6015625 1.1875 0.2262095 0.391807 0.4725645 0.757886 0.7265625 1.113282-0.4547066-0.194093-0.8771633-0.413165-1.2558594-0.658203-0.040645-0.0263-0.075587-0.05527-0.1152344-0.08203-0.00346-0.04897-0.011153-0.0949-0.013672-0.144531-0.022858-0.450403-0.0025-0.925444 0.056641-1.416016zm11.613282 0c0.05914 0.490572 0.0795 0.965613 0.05664 1.416016-0.0025 0.04964-0.01021 0.09556-0.01367 0.144531-0.03965 0.02676-0.07459 0.05573-0.115234 0.08203-0.378696 0.245038-0.801153 0.46411-1.255859 0.658203 0.254093-0.355341 0.500353-0.721475 0.726562-1.113282 0.226296-0.391956 0.420823-0.789625 0.601563-1.1875zm-11.419922 2.890625c0.7142911 0.378509 1.5152326 0.680793 2.3769531 0.900391 0.6195914 0.635098 1.2794901 1.178748 1.9628901 1.607422-1.0054615 0.238263-1.9433853 0.151909-2.7207026-0.296875-0.7780265-0.449194-1.3229452-1.219736-1.6191406-2.210938zm11.226562 0c-0.29626 0.990765-0.839396 1.761881-1.617187 2.210938-0.777261 0.448752-1.717277 0.535072-2.722656 0.296875 0.683862-0.428674 1.342699-0.972249 1.96289-1.607422 0.861721-0.219598 1.662662-0.521882 2.376953-0.900391zm-6.939453 1.230469c0.434126 0.04225 0.874467 0.07031 1.326172 0.07031 0.452377 0 0.893383-0.02794 1.328125-0.07031-0.394576 0.295797-0.796514 0.550831-1.197266 0.755859-0.04401 0.02251-0.08695 0.03917-0.130859 0.06055-0.04391-0.02138-0.08685-0.03803-0.130859-0.06055-0.40071-0.205007-0.800776-0.460101-1.195313-0.755859z" style="fill:#ffffff"/>
</svg>

<svg xmlns="http://www.w3.org/2000/svg" width="22" height="22" version="1.1" viewBox="0 0 22 22">
 <circle style="fill:#3399cc" cx="11" cy="11" r="10"/>
 <path style="opacity:0.2;fill:#ffffff" d="m 11,1 a 10,10 0 0 0 -10,10 10,10 0 0 0 0.01075,0.291 10,10 0 0 1 9.989,-9.791 10,10 0 0 1 9.9895,9.709 10,10 0 0 0 0.01074,-0.20895 10,10 0 0 0 -10,-10 z"/>
 <path style="opacity:0.2" d="M 20.9895,11.2 A 10,10 0 0 1 11,21 10,10 0 0 1 1.011,11.25 10,10 0 0 0 1,11.5 a 10,10 0 0 0 10,10 10,10 0 0 0 10,-10 10,10 0 0 0 -0.01075,-0.29105 z"/>
 <path style="opacity:0.2" d="M 8.9570312,3.1386844 C 8.0866614,3.0915766 7.2459032,3.2643754 6.4960938,3.6972781 5.1666194,4.4648505 4.4047924,5.8916061 4.1796875,7.5625125 2.8449213,8.5926045 1.9902344,9.964687 1.9902344,11.500013 c 0,1.535326 0.8546869,2.907408 2.1894531,3.9375 0.2251052,1.670905 0.9869318,3.097662 2.3164063,3.865234 1.3294795,0.767576 2.9446032,0.712954 4.5039062,0.07227 1.559559,0.640455 3.176422,0.695285 4.505859,-0.07227 1.329517,-0.767596 2.087725,-2.194435 2.3125,-3.865234 1.335482,-1.030199 2.191407,-2.401696 2.191407,-3.9375 0,-1.535804 -0.855925,-2.9073015 -2.191407,-3.9375005 C 17.593586,5.8917046 16.83538,4.4648775 15.505859,3.6972781 14.176422,2.9297273 12.559559,2.9845571 11,3.6250125 10.320172,3.3457014 9.629856,3.1751003 8.9570312,3.1386844 Z m -0.037109,1.015625 C 9.182486,4.1692686 9.453887,4.2181362 9.728516,4.2832156 9.044639,4.7120266 8.3836707,5.2551222 7.7636719,5.8906375 6.9013347,6.1103928 6.0994461,6.4121446 5.3847656,6.7910281 5.6812305,5.8001965 6.2277631,5.0293247 7.0058594,4.5800906 7.5713546,4.2536018 8.2207236,4.1144735 8.9199222,4.1543094 Z m 4.1601558,0 c 0.699198,-0.039836 1.350521,0.099292 1.916016,0.4257812 0.778096,0.449234 1.322675,1.2201058 1.61914,2.2109375 C 15.900554,6.4121446 15.098665,6.1103928 14.236328,5.8906375 13.615728,5.2550462 12.955824,4.7120267 12.271484,4.2832156 12.54636,4.2180369 12.817287,4.1692815 13.080078,4.1543094 Z m -2.078125,0.5898437 c 0.043,0.020953 0.08581,0.036547 0.128906,0.058594 0.401814,0.2055717 0.803534,0.4608267 1.199219,0.7578125 C 11.89472,5.5180625 11.453049,5.4902469 11,5.4902469 c -0.452377,0 -0.893383,0.02794 -1.328125,0.070312 0.39534,-0.2966377 0.795816,-0.5504736 1.197266,-0.7558594 0.04436,-0.022697 0.08855,-0.039009 0.132812,-0.060546 z M 11,6.5097781 c 0.952441,0 1.861478,0.1117466 2.707031,0.3046875 0.589112,0.6353135 1.13955,1.3674968 1.615235,2.1914064 0.475935,0.824344 0.832429,1.666225 1.08789,2.494141 -0.255662,0.828263 -0.611955,1.67175 -1.08789,2.496094 -0.475781,0.824077 -1.026187,1.554399 -1.615235,2.189453 -0.845553,0.192941 -1.75459,0.304687 -2.707031,0.304687 -0.952441,0 -1.861478,-0.111746 -2.7070312,-0.304687 C 7.7039212,15.550506 7.1535154,14.820184 6.6777344,13.996107 6.201799,13.171762 5.8455059,12.328276 5.5898438,11.500013 5.8453051,10.672097 6.201799,9.830217 6.6777344,9.005872 7.1535155,8.1817949 7.7037207,7.4498669 8.2929688,6.8144656 9.138522,6.6215247 10.047559,6.5097781 11,6.5097781 Z M 6.5214844,7.3808719 C 6.2674863,7.7362674 6.0211316,8.1042999 5.7949219,8.4961063 5.5686258,8.8880626 5.3741937,9.283834 5.1933594,9.681654 5.1341196,9.190909 5.1138609,8.714087 5.1367188,8.2636844 5.139204,8.214713 5.146983,8.1694291 5.1503906,8.1211063 5.1900383,8.0943443 5.2249804,8.0653744 5.265625,8.039075 5.6443211,7.7940363 6.0667778,7.5749646 6.5214844,7.3808719 Z m 8.9570316,0 c 0.454706,0.1940927 0.877163,0.4131644 1.255859,0.6582031 0.04143,0.026806 0.0768,0.056698 0.117187,0.083984 0.0034,0.048323 0.01119,0.093607 0.01367,0.1425781 0.02286,0.4504114 6.49e-4,0.9252609 -0.05859,1.4160159 C 16.625901,9.283779 16.431374,8.8880624 16.205078,8.4961063 15.978869,8.1042998 15.732609,7.7362126 15.478516,7.3808719 Z M 10.25,7.5000125 9.279297,11.382825 8.25,11.650404 8,12.650404 9.029297,12.382825 8.5,14.500013 h 5.25 l 0.5,-1 h -3.5 l 0.417969,-1.673828 1.632812,-0.425781 0.25,-1 -1.632812,0.425781 L 12.25,7.5000125 Z M 4.1132812,8.9941531 c 0.0295,0.8067919 0.1696513,1.6510449 0.4101563,2.5058599 -0.2405841,0.854968 -0.3806515,1.698926 -0.4101563,2.505859 -0.7089113,-0.751789 -1.1035156,-1.608015 -1.1035156,-2.505859 0,-0.897844 0.3946043,-1.754071 1.1035156,-2.5058599 z m 13.7734378,0 c 0.708911,0.7517889 1.103515,1.6080159 1.103515,2.5058599 0,0.897844 -0.394604,1.75407 -1.103515,2.505859 -0.02936,-0.806994 -0.169919,-1.650729 -0.410157,-2.505859 0.240169,-0.855012 0.380812,-1.698976 0.410157,-2.5058599 z M 5.1933594,13.318372 c 0.1808343,0.39782 0.3752664,0.795544 0.6015625,1.1875 0.2262095,0.391807 0.4725645,0.757886 0.7265625,1.113282 -0.4547066,-0.194093 -0.8771633,-0.413165 -1.2558594,-0.658203 -0.040645,-0.0263 -0.075587,-0.05527 -0.1152344,-0.08203 -0.00346,-0.04897 -0.011153,-0.09489 -0.013672,-0.144531 -0.022858,-0.450403 -0.0025,-0.925444 0.056641,-1.416016 z m 11.6132816,0 c 0.05914,0.490572 0.0795,0.965613 0.05664,1.416016 -0.0025,0.04964 -0.01021,0.09556 -0.01367,0.144531 -0.03965,0.02676 -0.07459,0.05573 -0.115234,0.08203 -0.378696,0.245038 -0.801153,0.46411 -1.255859,0.658203 0.254093,-0.355341 0.500353,-0.721475 0.726562,-1.113282 0.226296,-0.391956 0.420823,-0.789625 0.601563,-1.1875 z M 5.3867188,16.208997 C 6.1010099,16.587506 6.9019514,16.88979 7.7636719,17.109388 8.3832633,17.744486 9.043162,18.288136 9.726562,18.71681 8.7211005,18.955073 7.7831767,18.868719 7.0058594,18.419935 6.2278329,17.970741 5.6829142,17.200199 5.3867188,16.208997 Z m 11.2265622,0 c -0.29626,0.990765 -0.839396,1.761881 -1.617187,2.210938 -0.777261,0.448752 -1.717277,0.535072 -2.722656,0.296875 0.683862,-0.428674 1.342699,-0.972249 1.96289,-1.607422 0.861721,-0.219598 1.662662,-0.521882 2.376953,-0.900391 z m -6.939453,1.230469 c 0.434126,0.04225 0.874467,0.07031 1.326172,0.07031 0.452377,0 0.893383,-0.02794 1.328125,-0.07031 -0.394576,0.295797 -0.796514,0.550831 -1.197266,0.755859 -0.04401,0.02252 -0.08695,0.03917 -0.130859,0.06055 -0.04391,-0.02138 -0.08685,-0.03803 -0.130859,-0.06055 -0.40071,-0.205007 -0.800776,-0.460101 -1.195313,-0.755859 z"/>
 <path style="fill:#ffffff" d="M 8.9570312,2.6386719 C 8.0866614,2.5915641 7.2459032,2.7643629 6.4960938,3.1972656 5.1666194,3.964838 4.4047924,5.3915936 4.1796875,7.0625 2.8449213,8.092592 1.9902344,9.464674 1.9902344,11 c 0,1.535326 0.8546869,2.907408 2.1894531,3.9375 0.2251052,1.670905 0.9869318,3.097662 2.3164063,3.865234 C 7.8255733,19.57031 9.440697,19.515688 11,18.875 c 1.559559,0.640455 3.176422,0.695285 4.505859,-0.07227 1.329517,-0.767596 2.087725,-2.194435 2.3125,-3.865234 1.335482,-1.030199 2.191407,-2.401696 2.191407,-3.9375 0,-1.535804 -0.855925,-2.907301 -2.191407,-3.9375 C 17.593586,5.3916921 16.83538,3.964865 15.505859,3.1972656 14.176422,2.4297148 12.559559,2.4845446 11,3.125 10.320172,2.8456889 9.629856,2.6750878 8.9570312,2.6386719 Z m -0.037109,1.015625 C 9.182486,3.6692561 9.453887,3.7181237 9.728516,3.7832031 9.044639,4.2120141 8.3836707,4.7551097 7.7636719,5.390625 6.9013347,5.6103803 6.0994461,5.9121321 5.3847656,6.2910156 5.6812305,5.300184 6.2277631,4.5293122 7.0058594,4.0800781 7.5713546,3.7535893 8.2207236,3.614461 8.9199222,3.6542969 Z m 4.1601558,0 c 0.699198,-0.039836 1.350521,0.099292 1.916016,0.4257812 0.778096,0.449234 1.322675,1.2201058 1.61914,2.2109375 C 15.900554,5.9121321 15.098665,5.6103803 14.236328,5.390625 13.615728,4.7550337 12.955824,4.2120142 12.271484,3.7832031 12.54636,3.7180244 12.817287,3.669269 13.080078,3.6542969 Z m -2.078125,0.5898437 c 0.043,0.020953 0.08581,0.036547 0.128906,0.058594 0.401814,0.2055717 0.803534,0.4608267 1.199219,0.7578125 C 11.89472,5.01805 11.453049,4.9902344 11,4.9902344 c -0.452377,0 -0.893383,0.02794 -1.328125,0.070312 0.39534,-0.2966377 0.795816,-0.5504736 1.197266,-0.7558594 0.04436,-0.022697 0.08855,-0.039009 0.132812,-0.060546 z M 11,6.0097656 c 0.952441,0 1.861478,0.1117466 2.707031,0.3046875 0.589112,0.6353135 1.13955,1.3674968 1.615235,2.1914063 0.475935,0.8243436 0.832429,1.6662246 1.08789,2.4941406 -0.255662,0.828263 -0.611955,1.67175 -1.08789,2.496094 -0.475781,0.824077 -1.026187,1.554399 -1.615235,2.189453 -0.845553,0.192941 -1.75459,0.304687 -2.707031,0.304687 -0.952441,0 -1.861478,-0.111746 -2.7070312,-0.304687 C 7.7039212,15.050493 7.1535154,14.320171 6.6777344,13.496094 6.201799,12.671749 5.8455059,11.828263 5.5898438,11 5.8453051,10.172084 6.201799,9.330204 6.6777344,8.5058594 7.1535155,7.6817824 7.7037207,6.9498544 8.2929688,6.3144531 9.138522,6.1215122 10.047559,6.0097656 11,6.0097656 Z M 6.5214844,6.8808594 C 6.2674863,7.2362549 6.0211316,7.6042874 5.7949219,7.9960938 5.5686258,8.3880501 5.3741937,8.7838208 5.1933594,9.181641 5.1341196,8.6908963 5.1138609,8.2140745 5.1367188,7.7636719 5.139204,7.7147005 5.146983,7.6694166 5.1503906,7.6210938 5.1900383,7.5943318 5.2249804,7.5653619 5.265625,7.5390625 5.6443211,7.2940238 6.0667778,7.0749521 6.5214844,6.8808594 Z m 8.9570316,0 c 0.454706,0.1940927 0.877163,0.4131644 1.255859,0.6582031 0.04143,0.026806 0.0768,0.056698 0.117187,0.083984 0.0034,0.048323 0.01119,0.093607 0.01367,0.1425781 0.02286,0.4504114 6.49e-4,0.9252612 -0.05859,1.4160164 C 16.625901,8.783766 16.431374,8.3880499 16.205078,7.9960938 15.978869,7.6042873 15.732609,7.2362001 15.478516,6.8808594 Z M 10.25,7 9.279297,10.882812 8.25,11.150391 8,12.150391 9.029297,11.882812 8.5,14 h 5.25 l 0.5,-1 h -3.5 l 0.417969,-1.673828 1.632812,-0.425781 0.25,-1 -1.632812,0.425781 L 12.25,7 Z M 4.1132812,8.4941406 C 4.1427809,9.300932 4.2829325,10.145185 4.5234375,11 4.2828534,11.854968 4.142786,12.698926 4.1132812,13.505859 3.4043699,12.75407 3.0097656,11.897844 3.0097656,11 c 0,-0.897844 0.3946043,-1.754071 1.1035156,-2.5058594 z m 13.7734378,0 C 18.59563,9.245929 18.990234,10.102156 18.990234,11 c 0,0.897844 -0.394604,1.75407 -1.103515,2.505859 C 17.857361,12.698865 17.7168,11.85513 17.476562,11 17.716731,10.144988 17.857374,9.301024 17.886719,8.4941406 Z M 5.1933594,12.818359 c 0.1808343,0.39782 0.3752664,0.795544 0.6015625,1.1875 0.2262095,0.391807 0.4725645,0.757886 0.7265625,1.113282 -0.4547066,-0.194093 -0.8771633,-0.413165 -1.2558594,-0.658203 -0.040645,-0.0263 -0.075587,-0.05527 -0.1152344,-0.08203 -0.00346,-0.04897 -0.011153,-0.0949 -0.013672,-0.144531 -0.022858,-0.450403 -0.0025,-0.925444 0.056641,-1.416016 z m 11.6132816,0 c 0.05914,0.490572 0.0795,0.965613 0.05664,1.416016 -0.0025,0.04964 -0.01021,0.09556 -0.01367,0.144531 -0.03965,0.02676 -0.07459,0.05573 -0.115234,0.08203 -0.378696,0.245038 -0.801153,0.46411 -1.255859,0.658203 0.254093,-0.355341 0.500353,-0.721475 0.726562,-1.113282 0.226296,-0.391956 0.420823,-0.789625 0.601563,-1.1875 z M 5.3867188,15.708984 c 0.7142911,0.378509 1.5152326,0.680793 2.3769531,0.900391 0.6195914,0.635098 1.2794901,1.178748 1.9628901,1.607422 C 8.7211005,18.45506 7.7831767,18.368706 7.0058594,17.919922 6.2278329,17.470728 5.6829142,16.700186 5.3867188,15.708984 Z m 11.2265622,0 c -0.29626,0.990765 -0.839396,1.761881 -1.617187,2.210938 -0.777261,0.448752 -1.717277,0.535072 -2.722656,0.296875 0.683862,-0.428674 1.342699,-0.972249 1.96289,-1.607422 0.861721,-0.219598 1.662662,-0.521882 2.376953,-0.900391 z m -6.939453,1.230469 c 0.434126,0.04225 0.874467,0.07031 1.326172,0.07031 0.452377,0 0.893383,-0.02794 1.328125,-0.07031 -0.394576,0.295797 -0.796514,0.550831 -1.197266,0.755859 -0.04401,0.02251 -0.08695,0.03917 -0.130859,0.06055 -0.04391,-0.02138 -0.08685,-0.03803 -0.130859,-0.06055 -0.40071,-0.205007 -0.800776,-0.460101 -1.195313,-0.755859 z"/>
</svg>
